contributed-vectors/where_is_my_train.svg

<svg xmlns="http://www.w3.org/2000/svg" width="192" height="192" fill="none"><g clip-path="url(#a)"><path fill="#9ABEFF" d="m123.77 179.53 3.53-1.27c-1.16.46-2.35.87-3.53 1.27ZM184 96c0 26.63-11.83 50.49-30.52 66.63l-33.67-33.66H74.48l-34.72 34.72C20.35 147.55 8 123.22 8 96 8 47.4 47.4 8 96 8s88 39.4 88 88Z"/><path fill="#fff" d="M121.31 49.6h-10.86c-.45-4.66-4.37-8.31-9.16-8.31h-9.2c-4.58 0-8.36 3.34-9.08 7.71-.01.03-.01.06-.02.09-.05.17-.08.33-.1.51H73c-5.08 0-9.2 4.13-9.2 9.2v60.97c0 5.08 4.12 9.2 9.2 9.2h48.31c5.08 0 9.2-4.12 9.2-9.2V58.8c0-5.07-4.12-9.2-9.2-9.2Zm-31.43 0c.41-2.12 2.28-3.7 4.51-3.7h4.6c2.16 0 3.98 1.5 4.46 3.51.09.35.14.71.14 1.09a4.6 4.6 0 0 1-4.6 4.6h-4.6a4.6 4.6 0 0 1-4.51-5.5Z"/><path fill="#728DBE" d="M115.41 84.3a85.504 85.504 0 0 1-6.17 8.82h-6.05c-2.02 0-4.04.01-6.05.01h-1.07c-1.88-.01-3.77-.01-5.66-.01h-5.66a89.125 89.125 0 0 1-6.15-8.82c-3.3-5.43-4.95-8.19-4.38-10.69.97-4.28 6.48-6.39 9.95-7.72 4.66-1.78 8.59-1.78 12.84-1.78s8.18 0 12.84 1.78c3.51 1.34 8.97 3.52 9.94 7.72.56 2.5-1.08 5.26-4.38 10.69Z"/><path fill="#9ABEFF" d="M79.86 114.48a5.75 5.75 0 1 0 0-11.5 5.75 5.75 0 0 0 0 11.5ZM114.14 114.48a5.75 5.75 0 1 0 0-11.5 5.75 5.75 0 1 0 0 11.5Z"/><path fill="#728DBE" d="M153.48 162.63a87.592 87.592 0 0 1-26.18 15.63l-3.53 1.27C115.04 182.44 105.71 184 96 184c-6.26 0-12.35-.66-18.23-1.89a87.206 87.206 0 0 1-22.18-7.93 88.23 88.23 0 0 1-15.83-10.5l34.72-34.72h45.33l33.67 33.67Z"/><path fill="#fff" d="m59.15 150.64 18.26-18.25h11.13l-12.92 18.25H59.15ZM134.26 150.64l-18.25-18.25h-11.14l12.92 18.25h16.47ZM105.23 136.86l-2.4-3.38H90.58l-2.39 3.38h17.04ZM109.25 142.55l-2.4-3.39H86.56l-2.39 3.39h25.08ZM82.54 144.85l-3.21 4.54h34.75l-3.21-4.54H82.54Z"/></g><defs><clipPath id="a"><path fill="#fff" d="M0 0h192v192H0z"/></clipPath></defs></svg>

<svg width="192" height="192" viewBox="0 0 192 192" fill="none" xmlns="http://www.w3.org/2000/svg">
<g clip-path="url(#clip0)">
<path d="M123.77 179.53L127.3 178.26C126.14 178.72 124.95 179.13 123.77 179.53Z" fill="#9ABEFF"/>
<path d="M184 96C184 122.63 172.17 146.49 153.48 162.63L119.81 128.97H74.48L39.76 163.69C20.35 147.55 8 123.22 8 96C8 47.4 47.4 8 96 8C144.6 8 184 47.4 184 96Z" fill="#9ABEFF"/>
<path d="M121.31 49.6H110.45C110 44.94 106.08 41.29 101.29 41.29H92.09C87.51 41.29 83.73 44.63 83.01 49C83 49.03 83 49.06 82.99 49.09C82.94 49.26 82.91 49.42 82.89 49.6H73C67.92 49.6 63.8 53.73 63.8 58.8V119.77C63.8 124.85 67.92 128.97 73 128.97H121.31C126.39 128.97 130.51 124.85 130.51 119.77V58.8C130.51 53.73 126.39 49.6 121.31 49.6ZM89.88 49.6C90.29 47.48 92.16 45.9 94.39 45.9H98.99C101.15 45.9 102.97 47.4 103.45 49.41C103.54 49.76 103.59 50.12 103.59 50.5C103.59 53.04 101.53 55.1 98.99 55.1H94.39C91.85 55.1 89.79 53.04 89.79 50.5C89.79 50.18 89.82 49.88 89.88 49.6Z" fill="white"/>
<path d="M115.41 84.3C113.1 88.08 110.89 91.06 109.24 93.12C107.23 93.12 105.21 93.12 103.19 93.12C101.17 93.12 99.15 93.13 97.14 93.13H96.07C94.19 93.12 92.3 93.12 90.41 93.12C88.52 93.12 86.63 93.12 84.75 93.12C83.12 91.06 80.91 88.08 78.6 84.3C75.3 78.87 73.65 76.11 74.22 73.61C75.19 69.33 80.7 67.22 84.17 65.89C88.83 64.11 92.76 64.11 97.01 64.11C101.26 64.11 105.19 64.11 109.85 65.89C113.36 67.23 118.82 69.41 119.79 73.61C120.35 76.11 118.71 78.87 115.41 84.3Z" fill="#728DBE"/>
<path d="M79.86 114.48C83.0356 114.48 85.61 111.906 85.61 108.73C85.61 105.554 83.0356 102.98 79.86 102.98C76.6844 102.98 74.11 105.554 74.11 108.73C74.11 111.906 76.6844 114.48 79.86 114.48Z" fill="#9ABEFF"/>
<path d="M114.14 114.48C117.316 114.48 119.89 111.906 119.89 108.73C119.89 105.554 117.316 102.98 114.14 102.98C110.964 102.98 108.39 105.554 108.39 108.73C108.39 111.906 110.964 114.48 114.14 114.48Z" fill="#9ABEFF"/>
<path d="M153.48 162.63C145.8 169.27 136.96 174.59 127.3 178.26L123.77 179.53C115.04 182.44 105.71 184 96 184C89.74 184 83.65 183.34 77.77 182.11C69.94 180.45 62.49 177.77 55.59 174.18C49.93 171.25 44.62 167.72 39.76 163.68L74.48 128.96H119.81L153.48 162.63Z" fill="#728DBE"/>
<path d="M59.15 150.64L77.41 132.39H88.54L75.62 150.64H59.15Z" fill="white"/>
<path d="M134.26 150.64L116.01 132.39H104.87L117.79 150.64H134.26Z" fill="white"/>
<path d="M105.23 136.86L102.83 133.48H90.58L88.19 136.86H105.23Z" fill="white"/>
<path d="M109.25 142.55L106.85 139.16H86.56L84.17 142.55H109.25Z" fill="white"/>
<path d="M82.54 144.85L79.33 149.39H114.08L110.87 144.85H82.54Z" fill="white"/>
</g>
<defs>
<clipPath id="clip0">
<rect width="192" height="192" fill="white"/>
</clipPath>
</defs>
</svg>
